X:1
T:Title
%%score ( 1 2 ) ( 3 4 5 )
L:1/8
Q:1/4=110
M:4/4
K:D
V:1 treble nm="Grand Piano, Soprano"
V:2 treble 
V:3 bass nm="Choir Pad, Upton Pyne, F. A. J. Hervey"
V:4 bass 
V:5 bass 
V:1
 A2 A2 B2 [Ec]2 | d4 A4 | [B,D]2 D2 [CE]2 [DF]2 | [EG]8 | [DF]2 F2 [EG]2 A2 | B4 [^DF]4 | %6
w: By~Frederick~Alfred~John~Hervey,~1883 * * *||||||
 A2 G2 F2 E2 | D8 |] %8
w: ||
V:2
 D6 z2 | D8 | x8 | x8 | z4 z2 D2- | D4 z4 | E4 C4 | x8 |] %8
V:3
 z4 z2 A,2- | A,8 | z4 z2 A,2- | A,8 | A,2 z2 =C4 | z4 B,4- | B,4 A,2 z2 | [D,F,]8 |] %8
V:4
 [D,F,]2 [F,D]2 B,2 z2 | F,8 | [G,B,]2 [F,A,]2 [E,A,]2 D,2 | C,8 | D,2- [D,D]2 E,2 F,2 | %5
 [G,B,]4 z4 | E,4 A,,2- [A,,G,]2 | x8 |] %8
V:5
 z4 G,4 | x8 | x8 | x8 | x8 | x8 | x8 | x8 |] %8

